packages/tokens/icons/catering/size32Px.svg

<svg viewBox="0 0 32 32" fill="none" xmlns="http://www.w3.org/2000/svg" width="1em" height="1em"><path d="M4 25.5L4.72361 26.9472C4.893 27.286 5.23926 27.5 5.61803 27.5L26.382 27.5C26.7607 27.5 27.107 27.286 27.2764 26.9472L28 25.5" stroke="currentColor" stroke-linecap="round"/><path d="M2.5 25.5L29.5 25.5" stroke="currentColor" stroke-linecap="round"/><path d="M26.9915 25.46L5.00847 25.46C5.10097 22.7267 5.95321 19.94 7.64212 17.8052C9.4221 15.5553 12.1525 14 16 14C19.8475 14 22.5779 15.5553 24.3579 17.8052C26.0468 19.94 26.899 22.7267 26.9915 25.46Z" stroke="currentColor"/><path d="M17.409 11.8958C17.2882 12.5028 17.0581 13.0594 16.7768 13.4511C16.486 13.856 16.2079 14 16 14C15.7921 14 15.514 13.856 15.2232 13.4511C14.9419 13.0594 14.7118 12.5028 14.591 11.8958C14.5711 11.7958 14.5994 11.7082 14.6676 11.6355C14.7403 11.5579 14.859 11.5 15 11.5H17C17.141 11.5 17.2597 11.5579 17.3324 11.6355C17.4006 11.7082 17.4289 11.7958 17.409 11.8958Z" stroke="currentColor"/><path d="M16 8.5C15.3333 7.83333 15.3333 7.16667 16 6.5C16.6667 5.83333 16.6667 5.16667 16 4.5C15.3333 3.83333 15.3333 3.16667 16 2.5" stroke="currentColor" stroke-linecap="round"/><path d="M20.5 11.5C19.8333 10.8333 19.8333 10.1667 20.5 9.5C21.1667 8.83333 21.1667 8.16667 20.5 7.5C19.8333 6.83333 19.8333 6.16667 20.5 5.5" stroke="currentColor" stroke-linecap="round"/><path d="M11 11.5C10.3333 10.8333 10.3333 10.1667 11 9.5C11.6667 8.83333 11.6667 8.16667 11 7.5C10.3333 6.83333 10.3333 6.16667 11 5.5" stroke="currentColor" stroke-linecap="round"/></svg>

<svg xmlns="http://www.w3.org/2000/svg" fill="none" viewBox="0 0 32 32" width="1em" height="1em"><path stroke="currentColor" stroke-linecap="round" d="m4 25.5.724 1.447a1 1 0 0 0 .894.553h20.764a1 1 0 0 0 .894-.553L28 25.5m-25.5 0h27"/><path stroke="currentColor" d="M26.991 25.46H5.008c.093-2.733.945-5.52 2.634-7.655C9.422 15.555 12.152 14 16 14c3.848 0 6.578 1.555 8.358 3.805 1.689 2.135 2.541 4.922 2.633 7.655Zm-9.582-13.564c-.12.607-.35 1.163-.632 1.555-.291.405-.57.549-.777.549-.208 0-.486-.144-.777-.549-.281-.392-.511-.948-.632-1.555a.283.283 0 0 1 .077-.26A.456.456 0 0 1 15 11.5h2c.141 0 .26.058.332.136a.28.28 0 0 1 .077.26Z"/><path stroke="currentColor" stroke-linecap="round" d="M16 8.5c-.667-.667-.667-1.333 0-2s.667-1.333 0-2-.667-1.333 0-2m4.5 9c-.667-.667-.667-1.333 0-2s.667-1.333 0-2-.667-1.333 0-2m-9.5 6c-.667-.667-.667-1.333 0-2s.667-1.333 0-2-.667-1.333 0-2"/></svg>
